static/cards/FrenchDeck/default/card_diamonds_A.svg

<svg width="219" height="304" viewBox="0 0 219 304" fill="none" xmlns="http://www.w3.org/2000/svg">
<g filter="url(#filter0_d_18_674)">
<g clip-path="url(#clip0_18_674)">
<rect x="8" y="4" width="203" height="288" rx="10" fill="white"/>
<path d="M16.1909 44.2603C15.1899 44.2603 14.5293 43.6797 14.5293 42.7588C14.5293 42.3584 14.6294 41.978 14.7896 41.4976L23.0176 18.4951C23.5181 17.0938 24.2188 16.4531 25.5 16.4531C26.7812 16.4531 27.4819 17.0938 27.9824 18.4951L36.2104 41.4976C36.3706 41.938 36.4707 42.3584 36.4707 42.7388C36.4707 43.6797 35.8101 44.2603 34.7891 44.2603C33.8281 44.2603 33.2876 43.7998 32.9072 42.6187L30.605 35.792H20.375L18.0728 42.6187C17.6924 43.8198 17.1519 44.2603 16.1909 44.2603ZM21.3159 32.9692H29.6641L25.5601 20.7974H25.4199L21.3159 32.9692Z" fill="#BC1E24"/>
<path d="M26.1801 52.104C26.1038 51.9653 25.8962 51.9653 25.8199 52.104C23.5263 56.2724 21.8722 58.4782 18.5553 61.8648C18.4816 61.9401 18.4816 62.0599 18.5553 62.1352C21.8722 65.5218 23.5263 67.7276 25.8199 71.896C25.8962 72.0347 26.1038 72.0347 26.1801 71.896C28.4737 67.7276 30.1278 65.5218 33.4447 62.1352C33.5184 62.0599 33.5184 61.9401 33.4447 61.8648C30.1278 58.4782 28.4737 56.2724 26.1801 52.104Z" fill="#BC1E24"/>
<path d="M202.809 251.74C203.81 251.74 204.471 252.32 204.471 253.241C204.471 253.642 204.371 254.022 204.21 254.502L195.982 277.505C195.482 278.906 194.781 279.547 193.5 279.547C192.219 279.547 191.518 278.906 191.018 277.505L182.79 254.502C182.629 254.062 182.529 253.642 182.529 253.261C182.529 252.32 183.19 251.74 184.211 251.74C185.172 251.74 185.712 252.2 186.093 253.381L188.395 260.208L198.625 260.208L200.927 253.381C201.308 252.18 201.848 251.74 202.809 251.74ZM197.684 263.031L189.336 263.031L193.44 275.203L193.58 275.203L197.684 263.031Z" fill="#BC1E24"/>
<path d="M192.82 243.896C192.896 244.035 193.104 244.035 193.18 243.896C195.474 239.728 197.128 237.522 200.445 234.135C200.518 234.06 200.518 233.94 200.445 233.865C197.128 230.478 195.474 228.272 193.18 224.104C193.104 223.965 192.896 223.965 192.82 224.104C190.526 228.272 188.872 230.478 185.555 233.865C185.482 233.94 185.482 234.06 185.555 234.135C188.872 237.522 190.526 239.728 192.82 243.896Z" fill="#BC1E24"/>
<path d="M109.95 123.26C109.759 122.913 109.241 122.913 109.05 123.26C103.316 133.681 99.1805 139.196 90.8882 147.662C90.7039 147.85 90.7039 148.15 90.8882 148.338C99.1805 156.804 103.316 162.319 109.05 172.74C109.241 173.087 109.759 173.087 109.95 172.74C115.684 162.319 119.819 156.804 128.112 148.338C128.296 148.15 128.296 147.85 128.112 147.662C119.819 139.196 115.684 133.681 109.95 123.26Z" fill="#BC1E24"/>
</g>
</g>
<defs>
<filter id="filter0_d_18_674" x="0" y="0" width="219" height="304" filterUnits="userSpaceOnUse" color-interpolation-filters="sRGB">
<feFlood flood-opacity="0" result="BackgroundImageFix"/>
<feColorMatrix in="SourceAlpha" type="matrix" values="0 0 0 0 0 0 0 0 0 0 0 0 0 0 0 0 0 0 127 0" result="hardAlpha"/>
<feOffset dy="4"/>
<feGaussianBlur stdDeviation="4"/>
<feComposite in2="hardAlpha" operator="out"/>
<feColorMatrix type="matrix" values="0 0 0 0 0.614771 0 0 0 0 0.70094 0 0 0 0 0.806257 0 0 0 1 0"/>
<feBlend mode="normal" in2="BackgroundImageFix" result="effect1_dropShadow_18_674"/>
<feBlend mode="normal" in="SourceGraphic" in2="effect1_dropShadow_18_674" result="shape"/>
</filter>
<clipPath id="clip0_18_674">
<rect x="8" y="4" width="203" height="288" rx="10" fill="white"/>
</clipPath>
</defs>
</svg>

<svg xmlns="http://www.w3.org/2000/svg" width="219" height="304" fill="none" viewBox="0 0 219 304"><g filter="url(#a)"><g clip-path="url(#b)"><rect width="203" height="288" x="8" y="4" fill="#fff" rx="10"/><path fill="#bc1e24" d="M16.19 44.26c-1 0-1.66-.58-1.66-1.501 0-.4.1-.781.26-1.261l8.228-23.003c.5-1.401 1.2-2.042 2.482-2.042 1.281 0 1.982.64 2.482 2.042l8.228 23.003c.16.44.26.86.26 1.24 0 .942-.66 1.522-1.68 1.522-.962 0-1.502-.46-1.883-1.641l-2.302-6.827h-10.23l-2.302 6.827c-.38 1.2-.921 1.641-1.882 1.641m5.126-11.29h8.348L25.56 20.796h-.14zM26.18 52.104a.208.208 0 0 0-.36 0c-2.294 4.168-3.948 6.374-7.265 9.76a.193.193 0 0 0 0 .271c3.317 3.387 4.971 5.593 7.265 9.761a.208.208 0 0 0 .36 0c2.294-4.168 3.948-6.374 7.265-9.76a.193.193 0 0 0 0-.271c-3.317-3.387-4.971-5.593-7.265-9.761M202.809 251.74c1.001 0 1.662.58 1.662 1.501 0 .401-.1.781-.261 1.261l-8.228 23.003c-.5 1.401-1.201 2.042-2.482 2.042s-1.982-.641-2.482-2.042l-8.228-23.003c-.161-.44-.261-.86-.261-1.241 0-.941.661-1.521 1.682-1.521.961 0 1.501.46 1.882 1.641l2.302 6.827h10.23l2.302-6.827c.381-1.201.921-1.641 1.882-1.641m-5.125 11.291h-8.348l4.104 12.172h.14zM192.82 243.896a.208.208 0 0 0 .36 0c2.294-4.168 3.948-6.374 7.265-9.761a.194.194 0 0 0 0-.27c-3.317-3.387-4.971-5.593-7.265-9.761a.208.208 0 0 0-.36 0c-2.294 4.168-3.948 6.374-7.265 9.761a.194.194 0 0 0 0 .27c3.317 3.387 4.971 5.593 7.265 9.761M109.95 123.26a.52.52 0 0 0-.9 0c-5.734 10.421-9.87 15.936-18.162 24.402a.48.48 0 0 0 0 .676c8.292 8.466 12.428 13.981 18.162 24.402a.52.52 0 0 0 .9 0c5.734-10.421 9.869-15.936 18.162-24.402a.483.483 0 0 0 0-.676c-8.293-8.466-12.428-13.981-18.162-24.402"/></g></g><defs><clipPath id="b"><rect width="203" height="288" x="8" y="4" fill="#fff" rx="10"/></clipPath><filter id="a" width="219" height="304" x="0" y="0" color-interpolation-filters="sRGB" filterUnits="userSpaceOnUse"><feFlood flood-opacity="0" result="BackgroundImageFix"/><feColorMatrix in="SourceAlpha" result="hardAlpha" values="0 0 0 0 0 0 0 0 0 0 0 0 0 0 0 0 0 0 127 0"/><feOffset dy="4"/><feGaussianBlur stdDeviation="4"/><feComposite in2="hardAlpha" operator="out"/><feColorMatrix values="0 0 0 0 0.614771 0 0 0 0 0.70094 0 0 0 0 0.806257 0 0 0 1 0"/><feBlend in2="BackgroundImageFix" result="effect1_dropShadow_18_674"/><feBlend in="SourceGraphic" in2="effect1_dropShadow_18_674" result="shape"/></filter></defs></svg>
